X: 389
T: Yixixiang zhe maochuxi
%%abc-version 2.0
%%abcx-abcm2ps-target-version 5.9.1 (29 Sep 2008)
%%abc-creator hum2abc beta
%%abcx-conversion-date 2013/10/02 07:52:30
%%abc-edited-by Helmut Schaffrath
%%humdrum-veritas 2009042605
%%humdrum-veritas-data 552258355
%%continueall 1
%%barnumbers 0
L: 1/16
M: 2/4
K: C
e2 d e2< G2 A [I:setbarnb 1]| 
c2 c d c A2 G | 
e2 G2 A G E2 | 
d8 | 
e2 d e2< G2 A | 
c2 c d c A2 G | 
e2 G2 A G E2 | 
G8 |]  



